X: 1
T: Hedgehog, The
M: 9/8
L: 1/8
R: slip jig
K: Dmaj
|: A2 A B/c/dc B2 A | AFA BdA BAF | AF/G/A Bcd e2 A | f2 d ecd BAF :|
fAf eAe d2 A | f2 d ecd B2 A |fd/e/f ece d2 A | B/c/dc BAF AFD |
faf eae d3 | fAd ecd B2 f |agf ee/d/c d2 A | B/c/dB AFd AFD |]
